data/wire-one.svg

<svg width="28.658" height="15.4" viewBox="0 0 28.658 15.4" xmlns="http://www.w3.org/2000/svg"><path transform="translate(0 12.46) scale(.014 -.014)" d="m354 10q2-6 2-7 0-13-13-13t-13 13q0 5 2 7l-95 619-95-619q2-3 2-7 0-13-13-13t-13 13q0 5 2 7l-104 677q-4 4-4 10 0 13 13 13t13-13q0-5-2-7l95-619 95 619q-2 2-2 7 0 13 13 13t13-13q0-5-2-7l95-619 95 619q-2 2-2 7 0 13 13 13t13-13q0-4-4-10z"/><path transform="translate(6.636 12.46) scale(.014 -.014)" d="m63 620q3-3 3-8 0-13-13-13t-13 13q0 5 3 8v29q-3 5-3 9 0 13 13 13t13-13q0-4-3-9zm0-609q3-3 3-8 0-13-13-13t-13 13q0 5 3 8v477q-3 5-3 9 0 13 13 13t13-13q0-4-3-9z"/><path transform="translate(8.106 12.46) scale(.014 -.014)" d="m60 11q3-3 3-8 0-13-13-13t-13 13q0 5 3 8v477q-3 5-3 9 0 13 13 13t13-13q0-4-3-9v-35q14 23 33.5 35t49.5 12h17q5 3 9 3 13 0 13-13t-13-13q-4 0-9 3h-17q-42 0-62.5-30t-20.5-65z"/><path transform="translate(10.738 12.46) scale(.014 -.014)" d="m241 281h-186v-176q0-23 7.5-45t26-36 49.5-14q47 0 64.5 26.5t18.5 59.5q-3 3-3 8 0 13 13 13t13-13q0-5-3-8-2-27-12-51t-31.5-39.5-59.5-15.5q-39 0-61.5 17t-32 43.5-9.5 54.5v290q0 29 9.5 55t32 43 61.5 17 61.5-17 32-43 9.5-55zm-20 20v94q0 23-7 44.5t-25 36-51 14.5q-31 0-49.5-14.5t-26-36-7.5-44.5v-94z"/><path transform="translate(16.856 12.46) scale(.014 -.014)" d="m248 101q0-28-10-53.5t-32.5-41.5-61.5-16q-40 0-62.5 16t-32 41.5-9.5 53.5v495q0 29 9.5 55t32 42.5 62.5 16.5q39 0 61.5-16.5t32.5-42.5 10-55zm-188 0q0-35 18-63t66-28 66 28 18 63v495q0 23-7.5 44.5t-26 35.5-50.5 14-50.5-14-26-35.5-7.5-44.5z"/><path transform="translate(20.888 12.46) scale(.014 -.014)" d="m246 11q3-3 3-8 0-13-13-13t-13 13q0 5 3 8v384q0 23-7 44.5t-25 36-51 14.5q-28 0-46.5-14.5t-27.5-36-9-44.5v-384q3-3 3-8 0-13-13-13t-13 13q0 5 3 8v477q-3 5-3 9 0 13 13 13t13-13q0-4-3-9v-25q26 47 83 47 40 0 62.5-17t31.5-43 9-55z"/><path transform="translate(24.864 12.46) scale(.014 -.014)" d="m241 281h-186v-176q0-23 7.5-45t26-36 49.5-14q47 0 64.5 26.5t18.5 59.5q-3 3-3 8 0 13 13 13t13-13q0-5-3-8-2-27-12-51t-31.5-39.5-59.5-15.5q-39 0-61.5 17t-32 43.5-9.5 54.5v290q0 29 9.5 55t32 43 61.5 17 61.5-17 32-43 9.5-55zm-20 20v94q0 23-7 44.5t-25 36-51 14.5q-31 0-49.5-14.5t-26-36-7.5-44.5v-94z"/></svg>

<?xml version="1.0" encoding="utf-8" ?>
<svg baseProfile="tiny" height="100%" version="1.2" width="100%" xmlns="http://www.w3.org/2000/svg" xmlns:ev="http://www.w3.org/2001/xml-events" xmlns:xlink="http://www.w3.org/1999/xlink"><defs /><g><path d="M354 10Q356 4 356 3Q356 -10 343 -10Q330 -10 330 3Q330 8 332 10L237 629L142 10Q144 7 144 3Q144 -10 131 -10Q118 -10 118 3Q118 8 120 10L16 687Q12 691 12 697Q12 710 25 710Q38 710 38 697Q38 692 36 690L131 71L226 690Q224 692 224 697Q224 710 237 710Q250 710 250 697Q250 692 248 690L343 71L438 690Q436 692 436 697Q436 710 449 710Q462 710 462 697Q462 693 458 687Z" transform="translate(0.0, 72) scale(0.072, -0.072)" /><path d="M63 620Q66 617 66 612Q66 599 53 599Q40 599 40 612Q40 617 43 620V649Q40 654 40 658Q40 671 53 671Q66 671 66 658Q66 654 63 649ZM63 11Q66 8 66 3Q66 -10 53 -10Q40 -10 40 3Q40 8 43 11V488Q40 493 40 497Q40 510 53 510Q66 510 66 497Q66 493 63 488Z" transform="translate(34.128, 72) scale(0.072, -0.072)" /><path d="M60 11Q63 8 63 3Q63 -10 50 -10Q37 -10 37 3Q37 8 40 11V488Q37 493 37 497Q37 510 50 510Q63 510 63 497Q63 493 60 488V453Q74 476 93.5 488.0Q113 500 143 500H160Q165 503 169 503Q182 503 182 490Q182 477 169 477Q165 477 160 480H143Q101 480 80.5 450.0Q60 420 60 385Z" transform="translate(41.688, 72) scale(0.072, -0.072)" /><path d="M241 281H55V105Q55 82 62.5 60.0Q70 38 88.5 24.0Q107 10 138 10Q185 10 202.5 36.5Q220 63 221 96Q218 99 218 104Q218 117 231 117Q244 117 244 104Q244 99 241 96Q239 69 229.0 45.0Q219 21 197.5 5.5Q176 -10 138 -10Q99 -10 76.5 7.0Q54 24 44.5 50.5Q35 77 35 105V395Q35 424 44.5 450.0Q54 476 76.5 493.0Q99 510 138 510Q177 510 199.5 493.0Q222 476 231.5 450.0Q241 424 241 395ZM221 301V395Q221 418 214.0 439.5Q207 461 189.0 475.5Q171 490 138 490Q107 490 88.5 475.5Q70 461 62.5 439.5Q55 418 55 395V301Z" transform="translate(55.224000000000004, 72) scale(0.072, -0.072)" /><path d="M248 101Q248 73 238.0 47.5Q228 22 205.5 6.0Q183 -10 144 -10Q104 -10 81.5 6.0Q59 22 49.5 47.5Q40 73 40 101V596Q40 625 49.5 651.0Q59 677 81.5 693.5Q104 710 144 710Q183 710 205.5 693.5Q228 677 238.0 651.0Q248 625 248 596ZM60 101Q60 66 78.0 38.0Q96 10 144 10Q192 10 210.0 38.0Q228 66 228 101V596Q228 619 220.5 640.5Q213 662 194.5 676.0Q176 690 144 690Q112 690 93.5 676.0Q75 662 67.5 640.5Q60 619 60 596Z" transform="translate(86.688, 72) scale(0.072, -0.072)" /><path d="M246 11Q249 8 249 3Q249 -10 236 -10Q223 -10 223 3Q223 8 226 11V395Q226 418 219.0 439.5Q212 461 194.0 475.5Q176 490 143 490Q115 490 96.5 475.5Q78 461 69.0 439.5Q60 418 60 395V11Q63 8 63 3Q63 -10 50 -10Q37 -10 37 3Q37 8 40 11V488Q37 493 37 497Q37 510 50 510Q63 510 63 497Q63 493 60 488V463Q86 510 143 510Q183 510 205.5 493.0Q228 476 237.0 450.0Q246 424 246 395Z" transform="translate(107.424, 72) scale(0.072, -0.072)" /><path d="M241 281H55V105Q55 82 62.5 60.0Q70 38 88.5 24.0Q107 10 138 10Q185 10 202.5 36.5Q220 63 221 96Q218 99 218 104Q218 117 231 117Q244 117 244 104Q244 99 241 96Q239 69 229.0 45.0Q219 21 197.5 5.5Q176 -10 138 -10Q99 -10 76.5 7.0Q54 24 44.5 50.5Q35 77 35 105V395Q35 424 44.5 450.0Q54 476 76.5 493.0Q99 510 138 510Q177 510 199.5 493.0Q222 476 231.5 450.0Q241 424 241 395ZM221 301V395Q221 418 214.0 439.5Q207 461 189.0 475.5Q171 490 138 490Q107 490 88.5 475.5Q70 461 62.5 439.5Q55 418 55 395V301Z" transform="translate(127.872, 72) scale(0.072, -0.072)" /></g></svg>
